X:645
T:Fraher's
C:Chieftains
R:slip jig
D:Deiseal.
Z:id:hn-slipjig-1
M:9/8
K:Ador
|:A2D GED|DED FED|A2D GED|DED DEG|
A2D GED|DED FED|(4ABcA GEA|DED D3:|
|:(4ABcA d2A|dcA AGE|GAB c2A|BGE EDD|
Add def|dcA AGE|(4ABcA GEA|DED D3:|
